modules/hawcons-filled/icons/icon-23-one-finger-double-tap.svg

<?xml version="1.0" encoding="UTF-8" standalone="no"?>
<svg width="32px" height="32px" viewBox="0 0 32 32" version="1.1" xmlns="http://www.w3.org/2000/svg" xmlns:xlink="http://www.w3.org/1999/xlink" xmlns:sketch="http://www.bohemiancoding.com/sketch/ns">
    <!-- Generator: Sketch 3.0.3 (7891) - http://www.bohemiancoding.com/sketch -->
    <title>icon 23 one finger double tap</title>
    <desc>Created with Sketch.</desc>
    <defs></defs>
    <g id="Page-1" stroke="none" stroke-width="1" fill="none" fill-rule="evenodd" sketch:type="MSPage">
        <g id="icon-23-one-finger-double-tap" sketch:type="MSArtboardGroup" fill="#929292">
            <path d="M18.4420057,10.1387121 C18.8711433,9.35537758 19.1151466,8.45618383 19.1151466,7.5 C19.1151466,4.46243373 16.6527129,2 13.6151466,2 C10.5775804,2 8.11514664,4.46243373 8.11514664,7.5 C8.11514664,9.63734287 9.33430864,11.489935 11.1151466,12.4002905 L11.1151466,11.2422256 C9.90916087,10.4349642 9.11514664,9.06020815 9.11514664,7.5 C9.11514664,5.0147185 11.1298651,3 13.6151466,3 C16.1004281,3 18.1151466,5.0147185 18.1151466,7.5 C18.1151466,8.43122381 17.8322868,9.29638212 17.3477989,10.0142431 C17.4356362,10.0048303 17.5248321,10 17.6151466,10 C17.9055271,10 18.1836643,10.0488436 18.4420057,10.1387121 L18.4420057,10.1387121 L18.4420057,10.1387121 Z M16.1151466,9.94949144 C16.7337402,9.3182229 17.1151466,8.4536526 17.1151466,7.5 C17.1151466,5.56700328 15.5481434,4 13.6151466,4 C11.6821499,4 10.1151466,5.56700328 10.1151466,7.5 C10.1151466,8.4536526 10.4965531,9.3182229 11.1151466,9.94949144 L11.1151466,7.50098635 C11.1151466,6.12893087 12.2344348,5 13.6151466,5 C15.0054846,5 16.1151466,6.11972973 16.1151466,7.50098635 L16.1151466,9.94949144 L16.1151466,9.94949144 Z M19.1151466,12.4908981 C19.1151466,11.6674978 18.4493494,11 17.6151466,11 C16.7867195,11 16.1151466,11.6762201 16.1151466,12.4908981 L16.1151466,14.4325233 L16.1151466,17 L15.1151466,17 L15.1151466,14.5 L15.1151466,7.50863659 C15.1151466,6.67543961 14.4493494,6 13.6151466,6 C12.7867195,6 12.1151466,6.66642015 12.1151466,7.50863659 L12.1151466,17.7983451 C10.056747,15.5979243 7.34677642,13.1791206 6.23617935,14.2957153 C5.14900956,15.3887562 7.95050863,18.4007216 11.8625221,24.9830936 C13.6251425,27.9488875 15.8554315,29.9995418 19.6151466,30 C23.7572825,30 27.1151466,26.6421358 27.1151466,22.5 L27.1151466,19.2468012 L27.1151466,14.5063976 C27.1151466,13.6744372 26.4493494,13 25.6151466,13 C24.7867195,13 24.1151466,13.6764628 24.1151466,14.5063976 L24.1151466,16.7497253 L24.1151466,17 L23.1151466,17 L23.1151466,14.6781559 L23.1151466,13.4912653 C23.1151466,12.6676622 22.4493494,12 21.6151466,12 C20.7867195,12 20.1151466,12.6625444 20.1151466,13.4912653 L20.1151466,14.5082011 L20.1151466,16 L19.1151466,16 L19.1151466,14.5082011 L19.1151466,12.4908981 L19.1151466,12.4908981 Z" id="one-finger-double-tap" sketch:type="MSShapeGroup"></path>
        </g>
    </g>
</svg>

<svg width="32" height="32" viewBox="0 0 32 32" xmlns="http://www.w3.org/2000/svg"><path d="M18.442 10.139a5.5 5.5 0 1 0-7.327 2.262v-1.159a4.5 4.5 0 1 1 6.233-1.228 2.508 2.508 0 0 1 1.094.125zm-2.327-.19a3.5 3.5 0 1 0-5 0V7.501A2.506 2.506 0 0 1 13.615 5c1.39 0 2.5 1.12 2.5 2.501v2.448zm3 2.542a1.501 1.501 0 0 0-3 0V17h-1V7.509a1.5 1.5 0 1 0-3 0v10.29c-2.058-2.201-4.768-4.62-5.879-3.503-1.087 1.093 1.715 4.105 5.627 10.687C13.625 27.95 15.855 30 19.615 30a7.5 7.5 0 0 0 7.5-7.5v-7.993a1.5 1.5 0 1 0-3 0V17h-1V13.491c0-.823-.666-1.491-1.5-1.491-.828 0-1.5.663-1.5 1.491V16h-1v-3.509z" fill="#929292" fill-rule="evenodd"/></svg>
